public/images/garlic-logo.svg

<?xml version="1.0" encoding="UTF-8" standalone="no"?>
<svg
   width="190.32484"
   height="190.88382"
   viewBox="110 140 62.331385 92.769536"
   version="1.1"
   id="svg1"
   sodipodi:docname="garlic-logo.svg"
   inkscape:version="1.3.2 (091e20ef0f, 2023-11-25)"
   inkscape:export-filename="logo-pair.png"
   inkscape:export-xdpi="96"
   inkscape:export-ydpi="96"
   xmlns:inkscape="http://www.inkscape.org/namespaces/inkscape"
   xmlns:sodipodi="http://sodipodi.sourceforge.net/DTD/sodipodi-0.dtd"
   xmlns="http://www.w3.org/2000/svg"
   xmlns:svg="http://www.w3.org/2000/svg">
  <sodipodi:namedview
     id="namedview1"
     pagecolor="#ffffff"
     bordercolor="#000000"
     borderopacity="0.25"
     inkscape:showpageshadow="2"
     inkscape:pageopacity="0.0"
     inkscape:pagecheckerboard="0"
     inkscape:deskcolor="#d1d1d1"
     showgrid="false"
     inkscape:zoom="1.626"
     inkscape:cx="-9.2250923"
     inkscape:cy="108.54859"
     inkscape:window-width="1920"
     inkscape:window-height="1011"
     inkscape:window-x="0"
     inkscape:window-y="493"
     inkscape:window-maximized="1"
     inkscape:current-layer="layer1"
     inkscape:export-bgcolor="#ffffff00" />
  <defs
     id="defs1" />
  <g
     inkscape:groupmode="layer"
     id="layer1"
     inkscape:label="backdrop"
     transform="translate(-2.9445642,-11.632933)">
    <path
       id="filling-4"
       fill="#ffcb47"
       stroke="#ffcb47"
       stroke-width="0"
       d="m 154.48053,164.59923 c 2.91091,3.71848 7.95766,9.48981 15.1405,17.31401 4.28699,5.57226 7.02971,9.69398 8.22816,12.36565 0.86433,1.92674 1.70864,5.4018 2.53316,10.42517 l -0.39573,7.11246 c -1.11773,2.67527 -2.23479,4.42955 -3.35162,5.26217 -1.13549,0.84678 -3.77973,1.88109 -7.93271,3.10293 h -5.28847 l -3.50181,-2.2132 -1.35495,-3.31811 0.68354,5.53131 -1.33111,2.48167 -2.87808,2.42838 -4.32926,1.35989 -6.42757,0.38854 c -1.1229,0.0744 -2.52282,-0.12142 -4.2002,-0.58753 -0.77528,-0.21541 -1.93348,-0.95134 -3.47483,-2.2078 l -4.98857,-6.93978 1.97872,3.07663 c -4.03212,4.00458 -7.69416,5.64598 -10.98622,4.92421 -3.75673,-0.82362 -6.97208,-2.91473 -9.64609,-6.27331 l -2.93126,-5.77213 c -1.2729,-4.37603 -1.06031,-8.20815 0.6378,-11.49636 2.18277,-4.22673 6.32001,-9.12846 12.41172,-14.70519 3.08465,-3.42775 5.24321,-5.99104 6.47568,-7.68981 1.17322,-1.61709 3.6957,-6.4737 7.56717,-14.5698 9.2998,-1.42897 15.08722,-1.42897 17.36203,0 z"
       sodipodi:nodetypes="ccsccscccccccccscccsccscscc"
       style="fill:#ffffff;fill-opacity:1" />
  </g>
  <g
     inkscape:groupmode="layer"
     id="layer2"
     inkscape:label="shapes"
     transform="translate(-2.9445642,-11.632933)">
    <path
       id="hair"
       fill="none"
       stroke="#555555"
       stroke-width="2.2485"
       stroke-linecap="round"
       stroke-linejoin="bevel"
       d="m 143.18131,157.37892 -0.57562,1.68368 2.73418,7.93271 -0.68354,0.91739"
       sodipodi:nodetypes="cccc" />
    <path
       id="filling"
       fill="#ffcb47"
       stroke="#ffcb47"
       stroke-width="0"
       d="m 154.41983,164.32329 c 2.91091,3.71848 7.95766,9.48981 15.1405,17.31401 4.28699,5.57226 7.02971,9.69398 8.22816,12.36565 0.86433,1.92674 1.70864,5.4018 2.53316,10.42517 l -0.39573,7.11246 c -1.11773,2.67527 -2.23479,4.42955 -3.35162,5.26217 -1.13549,0.84678 -3.77973,1.88109 -7.93271,3.10293 h -5.28847 l -3.50181,-2.2132 -1.35495,-3.31811 0.68354,5.53131 -1.33111,2.48167 -2.87808,2.42838 -4.32926,1.35989 -6.42757,0.38854 c -1.1229,0.0744 -2.52282,-0.12142 -4.2002,-0.58753 -0.77528,-0.21541 -1.93348,-0.95134 -3.47483,-2.2078 l -4.98857,-6.93978 1.97872,3.07663 c -4.03212,4.00458 -7.69416,5.64598 -10.98622,4.92421 -3.75673,-0.82362 -6.97208,-2.91473 -9.64609,-6.27331 l -2.93126,-5.77213 c -1.2729,-4.37603 -1.06031,-8.20815 0.6378,-11.49636 2.18277,-4.22673 6.32001,-9.12846 12.41172,-14.70519 3.08465,-3.42775 5.24321,-5.99104 6.47568,-7.68981 1.17322,-1.61709 3.6957,-6.4737 7.56717,-14.5698 9.2998,-1.42897 15.08722,-1.42897 17.36203,0 z"
       sodipodi:nodetypes="ccsccscccccccccscccsccscscc"
       style="fill:#ffc848;fill-opacity:0.5" />
    <path
       id="eye-left"
       fill="none"
       stroke="#555555"
       stroke-width="2.2485"
       stroke-linecap="round"
       stroke-linejoin="bevel"
       d="m 136.15679,188.86775 0.98333,-3.34577 1.70288,-1.33831 1.40307,1.54337 0.79147,2.56869 0.14391,1.51099"
       sodipodi:nodetypes="cccccc" />
    <path
       id="eye-right"
       fill="none"
       stroke="#555555"
       stroke-width="2.2485"
       stroke-linecap="round"
       stroke-linejoin="bevel"
       d="m 152.17459,192.06622 -0.51565,-2.86009 -0.77949,-1.44623 -1.09126,-0.87422 -1.35511,0.4425 -0.81546,1.31673 -0.1439,1.35989 -0.0241,1.198"
       sodipodi:nodetypes="cccccccc" />
    <path
       id="mouth"
       fill="#ffffff"
       stroke="#555555"
       stroke-width="2.2485"
       stroke-linecap="round"
       stroke-linejoin="bevel"
       d="m 136.39958,202.19511 1.00733,2.20174 1.95469,0.1511 2.2545,-1.14404 0.49169,-2.23411 -0.94739,-1.57575 -1.47502,-0.61519 -1.46301,1.0469 c -0.08,0 -0.68754,0.72312 -1.82279,2.16935 z"
       sodipodi:nodetypes="ccccccccc" />
    <path
       id="leg-right"
       fill="none"
       stroke="#555555"
       stroke-width="2.2485"
       stroke-linecap="round"
       stroke-linejoin="bevel"
       d="m 143.34395,236.0649 c -3.71893,-0.72723 -4.66994,0.39918 -4.85492,0.0456 -0.73776,-2.67716 -0.91714,-6.11581 -0.53816,-10.31599"
       sodipodi:nodetypes="ccc" />
    <path
       id="toes-right"
       fill="none"
       stroke="#555555"
       stroke-width="2.2485"
       stroke-linecap="round"
       stroke-linejoin="bevel"
       d="m 133.03169,241.06921 c 0.69956,-1.39913 2.60748,-3.05268 5.72374,-4.96057"
       sodipodi:nodetypes="cc" />
    <path
       id="leg-left"
       fill="none"
       stroke="#555555"
       stroke-width="2.2485"
       stroke-linecap="round"
       stroke-linejoin="bevel"
       d="m 159.77997,235.11096 c -4.32654,-0.27681 -5.90845,-0.058 -4.74572,0.65609 l -0.0241,-10.6525"
       sodipodi:nodetypes="ccc" />
    <path
       id="outline"
       fill="none"
       stroke="#555555"
       stroke-width="2.2485"
       stroke-linecap="round"
       stroke-linejoin="bevel"
       d="m 150.40363,157.21233 c 2.82659,6.98042 8.93194,15.05983 18.31606,24.23816 4.28699,5.57224 7.02971,9.69396 8.22816,12.36563 0.86433,1.92674 1.70864,5.4018 2.53316,10.42517 l -0.39573,7.11246 c -1.11773,2.67549 -2.23479,4.42955 -3.35162,5.26217 -1.13549,0.84678 -3.77973,1.88109 -7.93271,3.10292 h -5.28847 l -3.50181,-2.21319 -1.35495,-3.31812 0.68354,5.53131 -1.33111,2.48168 -2.87808,2.42838 -4.32926,1.35989 -6.42757,0.38854 c -1.1229,0.0744 -2.52282,-0.12142 -4.2002,-0.58753 -0.77528,-0.21541 -1.93348,-0.95134 -3.47483,-2.20781 l -4.98857,-6.93977 1.97872,3.07662 c -4.03212,4.00459 -7.69416,5.64599 -10.98622,4.92422 -3.75672,-0.82362 -6.97208,-2.91473 -9.64609,-6.27331 l -2.93125,-5.77213 c -1.27291,-4.37603 -1.06031,-8.20793 0.63779,-11.49636 2.18277,-4.22673 6.32001,-9.12846 12.41172,-14.70519 3.08465,-3.42784 5.24321,-5.99113 6.47568,-7.68981 1.17322,-1.6171 4.09616,-7.14838 8.76923,-16.59391 l -1.07929,-3.64257"
       sodipodi:nodetypes="ccsccscccccccccscccsccscscc" />
    <path
       id="toes-left"
       fill="none"
       stroke="#555555"
       stroke-width="2.2485"
       stroke-linecap="round"
       stroke-linejoin="bevel"
       d="m 149.57977,239.76126 c 2.09684,-2.51279 4.06909,-4.06459 5.91678,-4.65543"
       sodipodi:nodetypes="cc" />
  </g>
</svg>

<?xml version="1.0" encoding="UTF-8" standalone="no"?>
<!-- Created with Pixodesk SVG (https://pixodesk.com) -->
<svg xmlns="http://www.w3.org/2000/svg" viewBox="104.37 144.58 74.08 85.86" text-rendering="geometricPrecision" shape-rendering="geometricPrecision">
  <g id="layer1" transform="translate(-2.9446, -11.6329)scale(-1, 1)">
    <path id="filling-4" fill="#ffffff" stroke="#ffcb47" stroke-width="0" transform="scale(-1, 1)" d="M154.48,164.6C157.39,168.32,162.44,174.09,169.62,181.914C173.9,187.484,176.65,191.6,177.85,194.28C178.714,196.2,179.56,199.68,180.38,204.7L179.984,211.814C178.864,214.49,177.75,216.244,176.634,217.074C175.499,217.92,172.854,218.954,168.7,220.174L163.4,220.174L159.9,217.964L158.552,214.644L159.236,220.174L157.9,222.654L155.026,225.084L150.696,226.444L144.266,226.834C143.146,226.9,141.746,226.714,140.066,226.244C139.29,226.024,138.136,225.294,136.59,224.0362L131.6,217.0962L133.58,220.1732C129.55,224.18,125.8872,225.82,122.59,225.0972C118.83,224.2732,115.62,222.1822,112.94,218.8242L110.01,213.0542C108.74,208.68,108.95,204.8442,110.65,201.5542C112.8342,197.3272,116.97,192.4242,123.06,186.85C126.1462,183.42,128.3,180.86,129.5362,179.16C130.7,177.54,133.2362,172.6852,137.1,164.59C146.4,163.16,152.1932,163.16,154.4632,164.59L154.48,164.6z"/>
  </g>
  <g id="layer2" transform="translate(-2.9446, -11.6329)">
    <path id="hair" fill="none" stroke="#555555" stroke-width="2.25" stroke-linecap="round" stroke-linejoin="bevel" d="M143.18,157.38L142.6,159.0626L145.34,166.9953L144.6563,167.9127"/>
    <path id="filling" fill="#ffc848" stroke="#ffcb47" stroke-width="0" d="M154.42,164.3233C157.33,168.04,162.3775,173.8131,169.56,181.6373C173.8473,187.2,176.59,191.33,177.79,194.0C178.6528,195.93,179.4971,199.4,180.32,204.43L179.9259,211.54C178.8,214.2158,177.69,215.97,176.5743,216.8C175.44,217.65,172.7946,218.6838,168.64,219.9L163.3531,219.9L159.85,217.6925L158.4964,214.3744L159.18,219.9L157.85,222.3873L154.97,224.8157L150.64,226.1756L144.2139,226.5642C143.09,226.64,141.69,226.4427,140.0137,225.9766C139.24,225.76,138.08,225.0253,136.54,223.77L131.55,216.83L133.53,219.9C129.4969,223.91,125.8348,225.55,122.5428,224.83C118.786,224.0,115.57,221.9152,112.8967,218.5566L109.9654,212.7844C108.6925,208.4,108.9,204.5763,110.6,201.29C112.786,197.06,116.9232,192.16,123.0149,186.5829C126.0996,183.1551,128.26,180.59,129.49,178.8931C130.6638,177.276,133.1863,172.42,137.0578,164.3233C146.3576,162.8943,152.145,162.8943,154.42,164.3233z"/>
    <path id="eye-left" fill="none" stroke="#555555" stroke-width="2.25" stroke-linecap="round" stroke-linejoin="bevel" transform="translate(150.67, 0)scale(-1, 1)translate(-138.67, 0)" d="M136.1568,188.8678L137.14,185.522L138.843,184.1837L140.2461,185.727L141.0375,188.2957L141.18,189.8"/>
    <path id="eye-right" fill="none" stroke="#555555" stroke-width="2.25" stroke-linecap="round" stroke-linejoin="bevel" transform="translate(138.8121, -1)scale(-1, 1)translate(-149.8121, 0)" d="M152.1746,192.0662L151.66,189.2L150.88,187.76L149.79,186.8857L148.4331,187.33L147.6176,188.6449L147.4737,190.0L147.45,191.2"/>
    <path id="mouth" fill="#ffffff" stroke="#555555" stroke-width="2.25" stroke-linecap="round" stroke-linejoin="bevel" transform="translate(146.2537, 2)scale(-1, 1)translate(-139.2537, 0)" d="M136.3996,202.1951L137.4,204.3969L139.36,204.55L141.6161,203.4L142.1,201.17L141.16,199.5941L139.6854,198.98L138.2224,200.0258C138.1424,200.0258,137.5348,200.75,136.3996,202.1951z"/>
    <path id="leg-right" fill="none" stroke="#555555" stroke-width="2.25" stroke-linecap="round" stroke-linejoin="bevel" transform="translate(136.55, 0)scale(-1, 1)translate(-140.55, 0)" d="M143.344,236.0649C139.625,235.3377,138.674,236.4641,138.49,236.11C137.75,233.4333,137.57,229.9947,137.95,225.7945"/>
    <path id="toes-right" fill="none" stroke="#555555" stroke-width="2.25" stroke-linecap="round" stroke-linejoin="bevel" transform="translate(140.8936, 0)scale(-1, 1)translate(-135.8936, 0)" d="M133.03,241.07C133.73,239.67,135.64,238.0165,138.7554,236.1"/>
    <path id="leg-left" fill="none" stroke="#555555" stroke-width="2.25" stroke-linecap="round" stroke-linejoin="bevel" transform="translate(150.2224, 0)scale(-1, 1)translate(-157.2224, 0)" d="M159.78,235.11C155.4534,234.8341,153.87,235.053,155.0342,235.7671L155.01,225.1146"/>
    <path id="outline" fill="none" stroke="#555555" stroke-width="2.25" stroke-linecap="round" stroke-linejoin="bevel" d="M150.4,157.2123C153.23,164.1928,159.3356,172.2722,168.72,181.45C173.0,187.0227,175.75,191.1445,176.9478,193.8161C177.8122,195.7429,178.6565,199.2179,179.48,204.24L179.0853,211.3538C177.9676,214.03,176.85,215.7833,175.7337,216.6159C174.5982,217.4627,171.9539,218.497,167.8,219.72L162.5125,219.72L159.01,217.5L157.6557,214.1875L158.34,219.72L157.0,222.2L154.13,224.63L149.8,225.99L143.3732,226.3773C142.25,226.45,140.85,226.2559,139.173,225.79C138.3978,225.5744,137.24,224.84,135.6982,223.582L130.7,216.6422L132.69,219.72C128.6562,223.7234,124.9942,225.3648,121.7,224.6431C117.9454,223.82,114.73,221.73,112.056,218.37L109.1248,212.5976C107.85,208.22,108.0645,204.39,109.7626,201.1C111.9454,196.8745,116.0826,191.9728,122.1743,186.3961C125.26,182.97,127.4175,180.4,128.65,178.7C129.8232,177.09,132.7461,171.5579,137.42,162.1124L136.34,158.47"/>
    <path id="toes-left" fill="none" stroke="#555555" stroke-width="2.25" stroke-linecap="round" stroke-linejoin="bevel" transform="translate(154.54, 0)scale(-1, 1)translate(-152.54, 0)" d="M149.58,239.76C151.6766,237.25,153.65,235.6967,155.4965,235.1"/>
  </g>
</svg>
